static/img/services/aws.svg

<svg width="54" height="32" viewBox="0 0 54 32" fill="none" xmlns="http://www.w3.org/2000/svg">
<g clip-path="url(#clip0)">
<path d="M15.192 11.6746C15.192 12.3252 15.2624 12.8527 15.3854 13.2395C15.5261 13.6263 15.7019 14.0483 15.9481 14.5054C16.036 14.6461 16.0712 14.7867 16.0712 14.9098C16.0712 15.0856 15.9657 15.2615 15.7371 15.4373L14.6294 16.1757C14.4712 16.2812 14.3129 16.334 14.1723 16.334C13.9964 16.334 13.8206 16.2461 13.6448 16.0878C13.3986 15.8241 13.1876 15.5428 13.0118 15.2615C12.836 14.9626 12.6602 14.6285 12.4668 14.2241C11.0953 15.8417 9.37226 16.6505 7.29753 16.6505C5.82061 16.6505 4.64259 16.2285 3.78105 15.3845C2.91951 14.5406 2.47995 13.4153 2.47995 12.0087C2.47995 10.5142 3.00742 9.30102 4.07995 8.38673C5.15248 7.47245 6.57665 7.01531 8.38764 7.01531C8.98544 7.01531 9.60083 7.06805 10.2514 7.15597C10.9019 7.24388 11.5701 7.38454 12.2734 7.54278V6.25926C12.2734 4.923 11.992 3.99113 11.447 3.44608C10.8843 2.90102 9.93489 2.63728 8.58105 2.63728C7.96566 2.63728 7.3327 2.70761 6.68215 2.86586C6.0316 3.0241 5.39863 3.2175 4.78325 3.46366C4.50193 3.58674 4.29094 3.65706 4.16786 3.69223C4.04479 3.72739 3.95687 3.74498 3.88654 3.74498C3.64039 3.74498 3.51731 3.56915 3.51731 3.19992V2.33838C3.51731 2.05707 3.55248 1.84608 3.64039 1.723C3.7283 1.59992 3.88654 1.47685 4.1327 1.35377C4.74808 1.03728 5.48654 0.773549 6.34808 0.56256C7.20962 0.333988 8.12391 0.228494 9.09094 0.228494C11.1832 0.228494 12.7129 0.703219 13.6975 1.65267C14.6646 2.60212 15.1569 4.04388 15.1569 5.97794V11.6746H15.192ZM8.05358 14.3472C8.6338 14.3472 9.2316 14.2417 9.86456 14.0307C10.4975 13.8197 11.0602 13.4329 11.5349 12.9054C11.8162 12.5714 12.0272 12.2021 12.1327 11.7801C12.2382 11.3582 12.3085 10.8483 12.3085 10.2505V9.51201C11.7986 9.38893 11.2536 9.28344 10.6909 9.21311C10.1283 9.14278 9.58325 9.10761 9.03819 9.10761C7.86017 9.10761 6.99863 9.33619 6.41841 9.81091C5.83819 10.2856 5.55687 10.9538 5.55687 11.8329C5.55687 12.6593 5.76786 13.2746 6.20742 13.6966C6.6294 14.1362 7.24478 14.3472 8.05358 14.3472ZM22.1723 16.2461C21.8558 16.2461 21.6448 16.1933 21.5041 16.0703C21.3635 15.9648 21.2404 15.7186 21.1349 15.3845L17.003 1.79333C16.8975 1.44168 16.8448 1.21311 16.8448 1.09003C16.8448 0.808713 16.9854 0.650472 17.2668 0.650472H18.9898C19.3239 0.650472 19.5525 0.703219 19.6756 0.826296C19.8162 0.93179 19.9217 1.17794 20.0272 1.51201L22.981 13.1516L25.7239 1.51201C25.8118 1.16036 25.9173 0.93179 26.058 0.826296C26.1986 0.720801 26.4448 0.650472 26.7613 0.650472H28.1679C28.5019 0.650472 28.7305 0.703219 28.8712 0.826296C29.0118 0.93179 29.1349 1.17794 29.2052 1.51201L31.9832 13.2922L35.025 1.51201C35.1305 1.16036 35.2536 0.93179 35.3766 0.826296C35.5173 0.720801 35.7459 0.650472 36.0624 0.650472H37.6975C37.9788 0.650472 38.1371 0.791131 38.1371 1.09003C38.1371 1.17794 38.1195 1.26586 38.1019 1.37135C38.0843 1.47685 38.0492 1.6175 37.9788 1.81091L33.7415 15.4021C33.636 15.7538 33.5129 15.9823 33.3723 16.0878C33.2316 16.1933 33.003 16.2637 32.7041 16.2637H31.192C30.858 16.2637 30.6294 16.2109 30.4887 16.0878C30.3481 15.9648 30.225 15.7362 30.1547 15.3845L27.4294 4.04388L24.7217 15.367C24.6338 15.7186 24.5283 15.9472 24.3876 16.0703C24.247 16.1933 24.0008 16.2461 23.6843 16.2461H22.1723ZM44.7657 16.7208C43.8514 16.7208 42.9371 16.6153 42.058 16.4043C41.1788 16.1933 40.4931 15.9648 40.036 15.701C39.7547 15.5428 39.5613 15.367 39.4909 15.2087C39.4206 15.0505 39.3854 14.8746 39.3854 14.7164V13.8197C39.3854 13.4505 39.5261 13.2746 39.7898 13.2746C39.8953 13.2746 40.0008 13.2922 40.1063 13.3274C40.2118 13.3626 40.3701 13.4329 40.5459 13.5032C41.1437 13.767 41.7942 13.9779 42.4799 14.1186C43.1832 14.2593 43.869 14.3296 44.5723 14.3296C45.6799 14.3296 46.5415 14.1362 47.1393 13.7494C47.7371 13.3626 48.0536 12.7999 48.0536 12.079C48.0536 11.5867 47.8953 11.1823 47.5788 10.8483C47.2624 10.5142 46.6646 10.2153 45.803 9.93399L43.2536 9.14278C41.9701 8.73838 41.0206 8.14058 40.4404 7.34937C39.8602 6.57575 39.5613 5.71421 39.5613 4.79992C39.5613 4.06146 39.7195 3.41091 40.036 2.84827C40.3525 2.28564 40.7745 1.79333 41.3019 1.40652C41.8294 1.00212 42.4272 0.703219 43.1305 0.49223C43.8338 0.281241 44.5723 0.193329 45.3459 0.193329C45.7327 0.193329 46.1371 0.210911 46.5239 0.263659C46.9283 0.316406 47.2975 0.386735 47.6668 0.457065C48.0184 0.544977 48.3525 0.632889 48.669 0.738384C48.9854 0.843878 49.2316 0.949373 49.4074 1.05487C49.6536 1.19553 49.8294 1.33619 49.9349 1.49443C50.0404 1.63509 50.0931 1.82849 50.0931 2.07465V2.90102C50.0931 3.27025 49.9525 3.46366 49.6887 3.46366C49.5481 3.46366 49.3195 3.39333 49.0206 3.25267C48.0184 2.79553 46.8931 2.56696 45.6448 2.56696C44.6426 2.56696 43.8514 2.7252 43.3063 3.05926C42.7613 3.39333 42.4799 3.90322 42.4799 4.6241C42.4799 5.11641 42.6558 5.53838 43.0074 5.87245C43.3591 6.20652 44.0096 6.54058 44.9415 6.83948L47.4382 7.63069C48.7041 8.03509 49.6184 8.59772 50.1635 9.3186C50.7085 10.0395 50.9723 10.8659 50.9723 11.7801C50.9723 12.5362 50.814 13.2219 50.5151 13.8197C50.1986 14.4175 49.7766 14.945 49.2316 15.367C48.6865 15.8065 48.036 16.123 47.2799 16.3516C46.4887 16.5977 45.6624 16.7208 44.7657 16.7208Z" fill="white"/>
<path fill-rule="evenodd" clip-rule="evenodd" d="M48.0887 25.2658C42.3041 29.5384 33.8997 31.8065 26.6733 31.8065C16.5459 31.8065 7.4206 28.0615 0.528299 21.8373C-0.0167562 21.345 0.475551 20.6768 1.1261 21.0637C8.58104 25.3889 17.7766 28.0087 27.2887 28.0087C33.7063 28.0087 40.7569 26.6724 47.2448 23.9296C48.2118 23.49 49.0382 24.5626 48.0887 25.2658Z" fill="white"/>
<path fill-rule="evenodd" clip-rule="evenodd" d="M50.4975 22.523C49.7591 21.5735 45.6096 22.0658 43.7283 22.2944C43.1657 22.3647 43.0777 21.8724 43.5876 21.5032C46.8931 19.1823 52.3261 19.8505 52.9591 20.6241C53.592 21.4153 52.7832 26.8483 49.6887 29.4504C49.214 29.8548 48.7569 29.6439 48.9679 29.1164C49.6712 27.3757 51.236 23.4548 50.4975 22.523Z" fill="white"/>
</g>
<defs>
<clipPath id="clip0">
<rect width="53.4506" height="32" fill="white" transform="translate(0.000823975)"/>
</clipPath>
</defs>
</svg>

<svg width="54" height="32" fill="none" xmlns="http://www.w3.org/2000/svg"><g clip-path="url(#a)" fill="#fff"><path d="M15.192 11.675c0 .65.07 1.178.193 1.564.141.387.317.81.563 1.266.088.141.123.282.123.405 0 .176-.105.351-.334.527l-1.108.739a.843.843 0 0 1-.457.158c-.176 0-.351-.088-.527-.246a5.434 5.434 0 0 1-.633-.827 13.619 13.619 0 0 1-.545-1.037c-1.372 1.618-3.095 2.427-5.17 2.427-1.476 0-2.654-.422-3.516-1.267-.861-.843-1.301-1.969-1.301-3.375 0-1.495.527-2.708 1.6-3.622 1.072-.915 2.497-1.372 4.308-1.372.597 0 1.213.053 1.863.141.65.088 1.32.229 2.022.387V6.259c0-1.336-.281-2.268-.826-2.813-.563-.545-1.512-.809-2.866-.809a8 8 0 0 0-1.899.229c-.65.158-1.283.351-1.899.598a5.045 5.045 0 0 1-.615.228 1.079 1.079 0 0 1-.281.053c-.247 0-.37-.176-.37-.545v-.862c0-.28.035-.492.123-.615s.247-.246.493-.37c.615-.316 1.354-.58 2.215-.79A10.66 10.66 0 0 1 9.091.228c2.092 0 3.622.475 4.607 1.425.967.95 1.459 2.39 1.459 4.325v5.697h.035Zm-7.138 2.672c.58 0 1.178-.105 1.81-.316.633-.211 1.196-.598 1.67-1.126a2.79 2.79 0 0 0 .599-1.125 6.31 6.31 0 0 0 .176-1.53v-.738a14.68 14.68 0 0 0-1.618-.299 13.247 13.247 0 0 0-1.653-.105c-1.178 0-2.04.228-2.62.703-.58.475-.861 1.143-.861 2.022 0 .826.21 1.442.65 1.864.422.44 1.038.65 1.847.65Zm14.118 1.9c-.316 0-.527-.054-.668-.177-.14-.105-.264-.351-.37-.686l-4.131-13.59c-.105-.352-.158-.58-.158-.704 0-.281.14-.44.422-.44h1.723c.334 0 .563.053.686.176.14.106.246.352.351.686l2.954 11.64 2.743-11.64c.088-.352.193-.58.334-.686.14-.105.387-.176.703-.176h1.407c.334 0 .563.053.703.176.14.106.264.352.334.686l2.778 11.78 3.042-11.78c.105-.352.229-.58.352-.686.14-.105.369-.176.685-.176h1.636c.28 0 .44.141.44.44 0 .088-.018.176-.036.281a2.497 2.497 0 0 1-.123.44l-4.237 13.591c-.106.352-.23.58-.37.686-.14.105-.369.176-.668.176h-1.512c-.334 0-.563-.053-.703-.176s-.264-.352-.334-.704l-2.726-11.34-2.707 11.323c-.088.352-.194.58-.334.703-.141.123-.387.176-.704.176h-1.512Zm22.594.474c-.915 0-1.829-.106-2.708-.317-.88-.21-1.565-.44-2.022-.703-.281-.158-.475-.334-.545-.492a1.242 1.242 0 0 1-.106-.493v-.896c0-.37.141-.545.405-.545.105 0 .21.017.316.052.106.036.264.106.44.176a9.562 9.562 0 0 0 1.934.616c.703.14 1.389.21 2.092.21 1.108 0 1.97-.193 2.567-.58.598-.386.915-.95.915-1.67 0-.492-.159-.897-.475-1.23-.317-.335-.914-.634-1.776-.915l-2.55-.791c-1.283-.405-2.232-1.002-2.813-1.794-.58-.773-.879-1.635-.879-2.55 0-.738.158-1.388.475-1.95a4.522 4.522 0 0 1 1.266-1.442A5.58 5.58 0 0 1 43.13.492c.704-.21 1.442-.299 2.216-.299.387 0 .791.018 1.178.07.404.053.773.124 1.143.194.351.088.685.176 1.002.281.316.106.563.211.738.317.247.14.422.281.528.44.105.14.158.333.158.58V2.9c0 .37-.14.563-.404.563-.14 0-.37-.07-.668-.211-1.003-.457-2.128-.686-3.376-.686-1.002 0-1.794.158-2.339.492-.545.334-.826.844-.826 1.565 0 .492.176.914.527 1.248.352.335 1.003.669 1.934.967l2.497.792c1.266.404 2.18.967 2.725 1.688.546.72.81 1.547.81 2.461a4.52 4.52 0 0 1-.458 2.04 4.73 4.73 0 0 1-1.283 1.547c-.545.44-1.196.756-1.952.985a8.362 8.362 0 0 1-2.514.369Z"/><path fill-rule="evenodd" clip-rule="evenodd" d="M48.089 25.266c-5.785 4.272-14.19 6.54-21.416 6.54-10.127 0-19.252-3.745-26.145-9.969-.545-.492-.052-1.16.598-.773 7.455 4.325 16.65 6.945 26.163 6.945 6.417 0 13.468-1.337 19.956-4.08.967-.439 1.793.634.844 1.337Z"/><path fill-rule="evenodd" clip-rule="evenodd" d="M50.498 22.523c-.739-.95-4.888-.457-6.77-.229-.562.07-.65-.422-.14-.79 3.305-2.322 8.738-1.654 9.371-.88.633.791-.176 6.224-3.27 8.826-.475.405-.932.194-.721-.334.703-1.74 2.268-5.661 1.53-6.593Z"/></g><defs><clipPath id="a"><path fill="#fff" d="M0 0h53.451v32H0z"/></clipPath></defs></svg>
